X:0
T:Deirdre's Farewell to Scotland
M:3/4
L:1/4
Q:1/4=100
K:CPhr
(e> c) B|A2 A|B2 A|G A> z|(F> G) B|c2 c| c2   B|c2 z|
(F A)  d|f2 f|e2 c|B A> z|(f e)  c|B2 A|(B A) B|c3 |]
